img/svgicons/eco.svg

<svg width="70" height="74" viewBox="0 0 70 74" fill="none" xmlns="http://www.w3.org/2000/svg">
<path d="M69.7738 40.8063C70.3185 44.3083 69.8343 47.6915 68.8054 50.8968C67.7765 54.28 66.2634 57.4852 63.9635 60.3343C60.9374 64.1331 57.4875 67.457 52.8877 69.5344C51.4352 70.1874 50.0431 71.1371 48.53 71.6119C46.7143 72.2055 44.9592 72.9771 43.0224 73.0364C42.7198 73.0364 42.3566 72.9771 42.1146 73.0958C38.7858 74.4016 35.2754 73.9268 31.8861 73.8674C29.9493 73.8081 28.0126 73.0364 26.0758 72.7397C22.3839 72.0867 19.1156 70.4248 16.0289 68.5254C13.608 67.1009 11.3081 65.3796 9.37137 63.3021C7.43462 61.1653 5.61891 58.9098 4.22687 56.4168C2.71379 53.7458 1.68489 50.9561 0.898082 47.9883C-0.312387 43.7741 -0.0097699 39.5005 0.1718 35.2862C0.292847 32.7339 1.14018 30.1816 2.10855 27.748C4.0453 23.0589 6.8899 18.904 10.6424 15.3427C11.7318 14.3336 12.8817 13.5027 13.9711 12.553C14.2132 12.3749 14.4553 12.0188 14.5159 11.722C15.2421 6.97353 18.0867 3.88704 22.3234 1.75023C24.7443 0.503763 27.2863 -0.14915 30.0099 0.0289169C32.1282 0.206984 34.186 0.68183 36.1227 1.69088C38.9673 3.17477 41.8725 4.59931 44.7776 6.0832C47.0775 7.21096 49.3168 8.57614 51.6773 9.46647C54.0377 10.3568 55.9744 12.0781 58.5164 12.553C60.2111 14.2743 63.1162 14.1556 64.5082 16.4704C63.7214 18.0137 61.9663 18.1918 60.6347 18.6666C57.9112 19.6163 55.1876 20.5066 52.5851 21.5157C48.9537 22.9402 45.2618 24.1273 41.6909 25.5519C39.3305 26.5016 36.9095 27.4513 34.4886 28.2229C31.765 29.1132 28.9204 29.1726 26.0758 28.7571C23.5944 28.4009 21.4155 27.2138 19.5998 25.7299C17.7841 24.246 16.0895 22.4654 15.4237 20.1505C14.2738 19.3789 14.879 18.0731 14.5159 17.0046C13.0633 17.064 12.2765 18.0731 11.5502 18.9634C9.91608 20.9815 8.22142 23.0589 6.8899 25.3144C5.0742 27.9855 4.0453 30.8939 3.56111 34.0397C3.31902 35.8204 2.89536 37.6011 2.77431 39.3818C2.59274 41.3405 3.2585 43.2399 3.50059 45.1986C3.80321 47.3354 4.40844 49.2942 5.19525 51.2529C6.70833 54.9329 8.88718 58.1975 11.7318 61.0466C15.4237 64.786 19.7209 67.5757 24.7443 69.119C26.6811 69.7125 28.6783 70.2467 30.7967 70.4841C32.9755 70.7216 35.1544 70.8996 37.2727 70.7809C41.9935 70.4248 46.5328 69.4157 50.8299 67.2196C53.7956 65.6763 56.4586 63.8363 58.819 61.5214C61.7242 58.6724 63.903 55.3484 65.2345 51.5497C66.0213 49.2942 66.6871 46.9793 66.7476 44.5457C66.8081 43.596 67.0502 42.7057 67.1107 41.756C67.2318 40.1534 67.7765 39.916 69.2896 40.5689C69.4106 40.6282 69.5317 40.6876 69.6527 40.7469C69.7738 40.7469 69.7738 40.8063 69.7738 40.8063ZM17.6631 14.2743C17.2999 14.2743 16.9368 14.2743 16.4526 14.2743C16.3316 16.1737 16.9368 17.7763 17.6026 19.3195C19.1156 22.7028 21.6576 25.0177 25.2285 26.2048C27.4074 26.9171 29.7072 27.1545 31.8256 26.4422C36.3648 24.9583 40.783 23.1776 45.3223 21.6937C48.2274 20.7441 51.072 19.4976 54.0377 18.6073C56.035 18.0137 57.9112 17.064 59.969 16.233C59.6058 15.9362 59.4243 15.6988 59.1216 15.5801C50.8905 11.6033 42.5987 7.62645 34.4281 3.5309C32.6729 2.69992 30.7967 2.40315 29.0415 2.40315C27.4679 2.40315 25.7732 2.75928 24.1391 3.47155C20.6893 5.0148 18.2683 7.21096 17.1789 10.8317C16.9368 11.722 16.6947 12.4343 16.9368 13.4433C18.0262 13.4433 18.9946 13.4433 19.963 13.4433C20.3866 14.4524 21.5971 13.3246 22.1418 14.3336C20.5682 14.2743 19.1156 14.2743 17.6631 14.2743Z" fill="white"/>
<path d="M50.3457 49.1747C47.1985 49.234 45.0197 47.9282 43.5066 45.2574C41.2067 41.162 43.204 36.1764 47.8038 34.7519C51.6773 33.5649 55.6113 34.8113 57.6691 38.3725C58.3349 39.5595 58.5769 41.2214 58.3954 42.5865C57.9717 45.2574 56.7007 47.5721 53.7956 48.5218C52.7062 48.8779 51.4957 48.9966 50.3457 49.1747ZM46.2907 41.7556C46.2907 44.189 48.409 46.3257 50.6484 46.2664C52.7667 46.207 54.885 43.9516 54.885 41.6962C54.9455 39.3221 53.0088 37.4822 50.5878 37.3635C48.2274 37.3041 45.9881 39.2628 46.2907 41.7556Z" fill="white"/>
<path d="M17.2999 37.7196C17.2999 38.6099 17.2999 39.2629 17.2999 40.0345C19.4788 40.0345 21.5971 40.0345 23.7154 40.0345C23.897 40.45 24.0786 40.6874 24.1391 40.9248C24.6838 42.5868 24.3207 43.121 22.626 43.121C20.8708 43.121 19.1762 43.121 17.2394 43.121C17.1789 43.9519 17.1789 44.7235 17.1184 45.7326C19.7814 45.7326 22.3839 45.7326 25.047 45.7326C25.4101 46.801 25.2285 47.7507 25.2891 48.9378C23.2313 48.9378 21.2945 48.9378 19.3577 48.9378C17.4815 48.9378 15.6053 48.9378 13.5475 48.9378C13.5475 47.3352 13.5475 45.8513 13.5475 44.4268C13.5475 41.6371 13.5475 38.788 13.5475 35.9983C13.5475 34.6331 13.7896 34.3364 15.0001 34.3957C18.3288 34.5144 21.7182 34.6925 25.168 34.8706C25.168 35.6422 25.168 36.3544 25.168 37.3041C24.5023 37.4228 23.7154 37.8383 22.9892 37.7196C21.234 37.4228 19.4183 38.0164 17.2999 37.7196Z" fill="white"/>
<path d="M40.7225 36.8291C39.9963 37.6007 39.27 38.3723 38.6042 39.0845C35.8201 36.5917 34.0044 37.1853 32.3098 38.3723C30.373 39.7967 30.494 42.7049 31.5835 44.1294C33.2781 46.3254 35.578 46.4441 38.5437 44.6042C39.3305 45.3164 40.1173 45.9692 40.9041 46.6221C38.5437 49.3523 35.5175 49.1742 32.5518 48.8775C30.6151 48.6401 29.102 47.3343 28.1941 45.6725C25.8942 41.3398 27.2863 37.1853 31.1598 35.1673C32.6124 34.3957 34.2465 34.1583 35.9412 34.3364C38.6647 34.5738 39.0279 34.8112 40.7225 36.8291Z" fill="white"/>
<path d="M26.3179 19.142C26.0153 18.6077 25.6522 18.0735 25.4706 17.48C24.4417 14.6308 23.5944 14.5715 21.5366 14.6902C20.5077 14.7495 19.4182 14.6902 18.3893 14.6308C18.1472 14.6308 17.9051 14.3934 17.7236 14.2153C19.1761 14.2153 20.6287 14.2153 22.2023 14.2153C21.5971 13.2063 20.4471 14.3934 20.0235 13.325C20.9918 13.325 21.9602 13.325 22.9286 13.325C24.5627 13.325 24.7443 13.1469 25.4101 11.7223C25.9548 10.4165 26.56 9.11064 27.1652 7.80479C27.4679 7.21122 27.8915 6.73636 28.2547 6.20215C28.981 6.61765 29.1625 6.91443 28.7994 7.68607C28.0126 9.16999 27.3468 10.7726 26.6205 12.3753C26.439 12.7314 26.439 13.1469 26.2574 13.7998C27.9521 13.7998 29.4046 13.7998 30.9177 13.7998C31.2203 13.7998 31.5229 14.0373 31.8256 14.156C30.373 14.156 28.8599 14.2153 27.1652 14.2153C27.9521 14.987 29.0415 14.0373 29.5257 14.987C28.4968 14.987 27.4679 14.987 26.2574 14.987C26.4995 16.0554 26.6811 16.8864 26.8021 17.658C25.9548 18.0142 26.439 18.7265 26.3179 19.142Z" fill="white"/>
<path d="M29.5257 15.1044C29.0415 14.1548 28.0126 15.1044 27.1653 14.3328C28.8599 14.3328 30.3125 14.2735 31.8256 14.2735C32.1887 14.2735 32.6124 14.2735 32.9755 14.2735C33.8228 14.3328 34.307 14.0361 34.6096 13.1458C34.8517 12.2555 35.457 11.484 35.8806 10.7124C36.5464 10.7718 36.3648 11.3059 36.4253 11.662C36.1227 12.4336 35.8806 13.1458 35.6385 13.9174C35.6385 13.9767 35.8806 14.1548 35.9412 14.3328C36.3648 15.4012 37.5753 14.1548 38.12 15.1638C37.3937 15.1638 36.728 15.1044 36.0622 15.1638C35.8806 15.1638 35.6991 15.4605 35.5175 15.6386C35.8201 16.5288 36.1227 17.4191 36.4253 18.25C36.4253 18.6655 36.4253 19.0809 36.4253 19.5558C36.0622 19.3777 35.8201 19.259 35.578 19.1403C35.2149 18.1907 34.9728 17.1817 34.5491 16.2914C34.186 15.5199 33.5808 15.0451 32.5519 15.1044C31.4624 15.2231 30.4941 15.1638 29.5257 15.1044Z" fill="white"/>
<path d="M35.3965 15.6397C35.5781 15.4616 35.7596 15.1648 35.9412 15.1648C36.6069 15.1054 37.2122 15.1648 37.999 15.1648C37.4543 14.1557 36.2438 15.3429 35.8201 14.2744C38.3621 14.3931 40.9646 14.5119 43.5066 14.6306C43.3855 15.7584 42.1751 14.6306 41.8725 15.4022C42.2961 15.9958 43.325 15.0461 43.5066 16.0552C40.8436 15.9365 38.12 15.8177 35.3965 15.6397Z" fill="white"/>
<path d="M47.6827 15.1641C49.2563 15.2828 50.951 14.9267 52.6456 15.5201C51.7378 16.4697 51.1325 16.7664 50.1036 16.4697C48.409 15.9356 46.7143 16.2323 45.0197 16.1136C44.8381 16.1136 44.717 16.1136 44.5355 16.1136C44.5355 15.8169 44.5355 15.5201 44.5355 15.2234C45.5644 15.1641 46.5933 15.1641 47.6827 15.1641Z" fill="white"/>
<path d="M26.3179 19.1415C26.439 18.6667 25.9548 18.0138 26.8021 17.7764C27.1047 18.3105 27.4073 18.8447 27.6494 19.4382C27.9521 20.2098 28.1941 21.0408 28.4968 21.9904C28.0126 22.2278 27.5284 22.5839 27.1652 21.753C26.8626 20.9221 26.1363 20.2098 26.3179 19.1415Z" fill="white"/>
<path d="M47.6827 15.1644C46.5933 15.1644 45.5644 15.1644 44.475 15.1644C44.475 14.749 44.5355 14.2743 43.9302 14.215C44.0513 13.7996 44.1118 13.0875 44.2934 13.0281C45.1407 12.8501 44.6565 12.494 44.5355 12.138C44.475 12.0193 44.7171 11.7819 44.8381 11.6632C44.8986 11.6039 45.1407 11.7226 45.2012 11.8413C46.0486 12.7907 45.5039 13.6809 44.9592 14.5117C45.8065 15.1644 46.9564 14.215 47.6827 15.1644Z" fill="white"/>
<path d="M44.475 16.0547C44.6565 16.0547 44.7776 16.0547 44.9591 16.0547C45.2617 16.945 45.5644 17.7759 45.8064 18.6662C45.867 18.9036 45.6854 19.4378 45.4433 19.5565C45.0802 19.7346 44.596 19.6752 44.475 19.0223C44.3539 18.3101 44.1118 17.6572 43.9908 16.945C44.596 16.8856 44.475 16.4108 44.475 16.0547Z" fill="white"/>
<path d="M44.475 16.0557C44.475 16.412 44.596 16.8869 43.9908 16.9463C43.8697 16.6495 43.6882 16.3526 43.5671 16.0557C43.325 15.0464 42.3566 15.937 41.933 15.4026C42.2356 14.6308 43.4461 15.7588 43.5671 14.6308C43.6882 14.4526 43.8092 14.3339 43.9908 14.1558C44.596 14.2151 44.5355 14.6901 44.5355 15.1057C44.475 15.462 44.475 15.7588 44.475 16.0557Z" fill="white"/>
<path d="M36.3043 11.6617C36.2438 11.2463 36.4253 10.7715 35.7596 10.7122C35.9412 10.2374 36.0622 9.76265 36.3043 9.28788C36.6674 8.69441 37.1516 8.81311 37.6964 9.34722C37.2727 10.0594 36.7885 10.8902 36.3043 11.6617Z" fill="white"/>
<path d="M35.457 19.1408C35.6991 19.2595 35.9412 19.3783 36.3043 19.5563C36.3043 19.0815 36.3043 18.666 36.3043 18.2505C36.6069 18.844 36.97 19.4376 37.1516 20.0905C37.2121 20.3279 36.97 20.8028 36.7279 20.8622C36.4859 20.9215 36.0017 20.7434 35.8806 20.506C35.6385 20.1499 35.578 19.6157 35.457 19.1408Z" fill="white"/>
</svg>

<svg width="70" height="74" fill="none" xmlns="http://www.w3.org/2000/svg"><path d="M69.774 40.806c.544 3.502.06 6.886-.969 10.09-1.029 3.384-2.542 6.59-4.842 9.438-3.026 3.8-6.476 7.123-11.075 9.2-1.453.653-2.845 1.603-4.358 2.078-1.816.594-3.57 1.365-5.508 1.424-.302 0-.665-.059-.907.06-3.33 1.306-6.84.83-10.229.771-1.937-.059-3.873-.83-5.81-1.127-3.692-.653-6.96-2.315-10.047-4.215-2.421-1.424-4.72-3.145-6.658-5.223-1.936-2.137-3.752-4.392-5.144-6.885-1.513-2.671-2.542-5.46-3.329-8.429-1.21-4.214-.908-8.487-.726-12.702.12-2.552.968-5.104 1.937-7.538 1.936-4.69 4.78-8.844 8.533-12.405 1.09-1.01 2.24-1.84 3.33-2.79.241-.178.483-.534.544-.831.726-4.748 3.57-7.835 7.807-9.972C24.744.504 27.286-.15 30.01.03c2.118.178 4.176.653 6.113 1.662 2.844 1.484 5.75 2.908 8.655 4.392 2.3 1.128 4.539 2.493 6.9 3.383 2.36.89 4.296 2.612 6.838 3.087 1.695 1.721 4.6 1.603 5.992 3.917-.787 1.544-2.542 1.722-3.873 2.197-2.724.95-5.447 1.84-8.05 2.849-3.631 1.424-7.323 2.611-10.894 4.036-2.36.95-4.782 1.9-7.202 2.67-2.724.891-5.569.95-8.413.535-2.482-.356-4.66-1.543-6.476-3.027-1.816-1.484-3.51-3.265-4.176-5.58-1.15-.771-.545-2.077-.908-3.145-1.453.059-2.24 1.068-2.966 1.958-1.634 2.018-3.329 4.096-4.66 6.351-1.816 2.671-2.845 5.58-3.329 8.726-.242 1.78-.666 3.561-.787 5.342-.181 1.959.485 3.858.727 5.817.302 2.136.907 4.095 1.694 6.054a29.753 29.753 0 0 0 6.537 9.794c3.692 3.739 7.989 6.529 13.012 8.072 1.937.594 3.934 1.128 6.053 1.365 2.178.238 4.357.416 6.476.297 4.72-.356 9.26-1.365 13.557-3.561 2.966-1.544 5.629-3.384 7.989-5.699 2.905-2.849 5.084-6.173 6.415-9.971.787-2.256 1.453-4.57 1.514-7.004.06-.95.302-1.84.363-2.79.12-1.603.665-1.84 2.179-1.187.12.06.242.119.363.178.12 0 .12.06.12.06Zm-52.11-26.532h-1.211c-.121 1.9.484 3.502 1.15 5.046 1.513 3.383 4.055 5.698 7.625 6.885 2.18.712 4.48.95 6.598.237 4.539-1.484 8.957-3.264 13.496-4.748 2.905-.95 5.75-2.196 8.716-3.087 1.997-.593 3.873-1.543 5.931-2.374-.363-.297-.545-.534-.847-.653-8.231-3.977-16.523-7.954-24.694-12.05-1.755-.83-3.631-1.127-5.386-1.127-1.574 0-3.269.356-4.903 1.069-3.45 1.543-5.87 3.739-6.96 7.36-.242.89-.484 1.602-.242 2.611h3.026c.424 1.01 1.634-.118 2.179.89-1.574-.059-3.026-.059-4.479-.059Z" fill="#fff"/><path d="M50.346 49.175c-3.147.059-5.326-1.247-6.84-3.918-2.3-4.095-.302-9.08 4.298-10.505 3.873-1.187 7.807.06 9.865 3.62.666 1.188.908 2.85.726 4.215-.423 2.67-1.694 4.985-4.6 5.935-1.089.356-2.3.475-3.45.653Zm-4.055-7.42c0 2.434 2.118 4.57 4.357 4.511 2.119-.059 4.237-2.314 4.237-4.57.06-2.374-1.876-4.214-4.297-4.332-2.36-.06-4.6 1.899-4.297 4.392ZM17.3 37.72v2.315h6.415c.182.415.364.652.424.89.545 1.662.182 2.196-1.513 2.196h-5.387c-.06.83-.06 1.602-.12 2.612h7.928c.363 1.068.181 2.018.242 3.205H13.548V35.998c0-1.365.242-1.662 1.452-1.602 3.329.118 6.718.297 10.168.475v2.433c-.666.119-1.453.534-2.179.416-1.755-.297-3.57.296-5.69 0ZM40.722 36.83c-.726.77-1.452 1.542-2.118 2.255-2.784-2.493-4.6-1.9-6.294-.713-1.937 1.425-1.816 4.333-.727 5.757 1.695 2.196 3.995 2.315 6.96.475.788.712 1.574 1.365 2.361 2.018-2.36 2.73-5.387 2.552-8.352 2.255-1.937-.237-3.45-1.543-4.358-3.205-2.3-4.332-.908-8.487 2.966-10.505 1.452-.771 3.086-1.009 4.781-.83 2.724.237 3.087.474 4.781 2.492ZM26.318 19.142c-.303-.534-.666-1.069-.847-1.662-1.03-2.85-1.877-2.909-3.934-2.79-1.03.06-2.119 0-3.148-.06-.242 0-.484-.237-.665-.415h4.478c-.605-1.009-1.755.178-2.179-.89h2.906c1.634 0 1.815-.178 2.481-1.603.545-1.306 1.15-2.611 1.755-3.917.303-.594.727-1.069 1.09-1.603.726.416.908.712.544 1.484-.786 1.484-1.452 3.087-2.178 4.69-.182.355-.182.77-.364 1.424h4.66c.303 0 .606.237.909.356-1.453 0-2.966.06-4.66.06.786.771 1.875-.179 2.36.771h-3.269c.242 1.068.424 1.9.545 2.671-.847.356-.363 1.069-.484 1.484Z" fill="#fff"/><path d="M29.526 15.104c-.485-.95-1.513 0-2.36-.771 1.694 0 3.146-.06 4.66-.06h1.15c.847.06 1.331-.237 1.634-1.127.242-.89.847-1.662 1.27-2.434.666.06.485.594.545.95a33.305 33.305 0 0 0-.786 2.255c0 .06.242.238.302.416.424 1.068 1.634-.178 2.179.83-.726 0-1.392-.059-2.058 0-.181 0-.363.297-.544.476.302.89.605 1.78.907 2.611v1.306l-.847-.416c-.363-.95-.605-1.958-1.029-2.849-.363-.771-.968-1.246-1.997-1.187-1.09.12-2.058.06-3.026 0Z" fill="#fff"/><path d="M35.397 15.64c.181-.178.363-.475.544-.475.666-.06 1.271 0 2.058 0-.545-1.01-1.755.178-2.179-.89 2.542.118 5.145.237 7.687.356-.121 1.127-1.332 0-1.634.771.423.594 1.452-.356 1.634.653-2.663-.118-5.387-.237-8.11-.415ZM47.683 15.164c1.573.119 3.268-.237 4.963.356-.908.95-1.514 1.246-2.542.95-1.695-.534-3.39-.238-5.084-.356h-.485v-.89c1.03-.06 2.058-.06 3.148-.06ZM26.318 19.142c.121-.475-.363-1.128.484-1.366.303.535.605 1.069.847 1.662.303.772.545 1.603.848 2.552-.484.238-.969.594-1.332-.237-.302-.83-1.029-1.543-.847-2.611Z" fill="#fff"/><path d="M47.683 15.164h-3.208c0-.415.06-.89-.545-.949.121-.415.182-1.127.363-1.187.848-.178.364-.534.242-.89-.06-.119.182-.356.303-.475.06-.06.303.06.363.178.848.95.303 1.84-.242 2.67.847.653 1.997-.296 2.724.653ZM44.475 16.055h.484c.303.89.605 1.72.847 2.611.061.238-.12.772-.363.89-.363.179-.847.12-.968-.534-.121-.712-.363-1.365-.484-2.077.605-.06.484-.534.484-.89Z" fill="#fff"/><path d="M44.475 16.056c0 .356.121.83-.484.89-.121-.297-.303-.593-.424-.89-.242-1.01-1.21-.119-1.634-.653.303-.772 1.513.356 1.634-.772.121-.178.242-.297.424-.475.605.06.544.534.544.95-.06.356-.06.653-.06.95ZM36.304 11.662c-.06-.416.121-.89-.544-.95.181-.475.302-.95.544-1.424.363-.594.848-.475 1.392.06-.423.711-.907 1.542-1.392 2.314ZM35.457 19.14c.242.12.484.238.847.416V18.25c.303.594.666 1.188.848 1.84.06.238-.182.713-.424.772-.242.06-.726-.119-.847-.356-.242-.356-.303-.89-.424-1.365Z" fill="#fff"/></svg>
